X: 10577
T: Dot The Dragon's Eyes
R: reel
M: 4/4
K: Eminor
e2(3BBB B2AB|dB (3BBB B2AG|A2AB GAE2|DEB,D EGeg|
e2(3BBB B2AB|dB (3BBB B2AG|1 AAGG EEG(A|A)AGG gfed:|2 AG(G2 G)BAG|AG(E2 E)GAB ]|
|:AAGG EEG(A|A)AGG EDB,D|EEDD B,B,D(E|E)EED EGAB|
[1 AAGG EEG(A|A)AGG EDB,D|E2ED EGD(E|E)E2D EGAB:|
[2 ABG(A A2)Bd|AB2A Bdeg|e3(e e2)eg|aAgG ed3:|

